X:84
T: Ha tudtad te, kisangyalom, nem szeretsz...
M: 4/4
L: 1/4
K: F
g/f/e/c/ d/e/f/g/ | a f c2 | 
d/e/f/g/ f/c/d | d c G2 | 
c B c d | f/d/c | c B F2 | 
B/c/d/B/ c/c/F/B/ | G<G G 2 

